Numix/16/actions/edit-clear-locationbar-rtl.svg

<?xml version="1.0" encoding="UTF-8" standalone="no"?>
<svg
   xmlns:dc="http://purl.org/dc/elements/1.1/"
   xmlns:cc="http://creativecommons.org/ns#"
   xmlns:rdf="http://www.w3.org/1999/02/22-rdf-syntax-ns#"
   xmlns:svg="http://www.w3.org/2000/svg"
   xmlns="http://www.w3.org/2000/svg"
   xmlns:sodipodi="http://sodipodi.sourceforge.net/DTD/sodipodi-0.dtd"
   xmlns:inkscape="http://www.inkscape.org/namespaces/inkscape"
   viewBox="0 0 16 16"
   id="svg2"
   version="1.1"
   inkscape:version="0.91 r"
   sodipodi:docname="edit-clear-locationbar-rtl.svg">
  <metadata
     id="metadata12">
    <rdf:RDF>
      <cc:Work
         rdf:about="">
        <dc:format>image/svg+xml</dc:format>
        <dc:type
           rdf:resource="http://purl.org/dc/dcmitype/StillImage" />
        <dc:title></dc:title>
      </cc:Work>
    </rdf:RDF>
  </metadata>
  <defs
     id="defs10" />
  <sodipodi:namedview
     pagecolor="#ffffff"
     bordercolor="#666666"
     borderopacity="1"
     objecttolerance="10"
     gridtolerance="10"
     guidetolerance="10"
     inkscape:pageopacity="0"
     inkscape:pageshadow="2"
     inkscape:window-width="1920"
     inkscape:window-height="1056"
     id="namedview8"
     showgrid="true"
     inkscape:zoom="12.239653"
     inkscape:cx="-22.661264"
     inkscape:cy="8"
     inkscape:window-x="0"
     inkscape:window-y="24"
     inkscape:window-maximized="1"
     inkscape:current-layer="svg2">
    <inkscape:grid
       type="xygrid"
       id="grid4135" />
  </sodipodi:namedview>
  <path
     inkscape:connector-curvature="0"
     id="path4165"
     d="m 6,3 -5,5 5,5 8.035607,0 C 14.565768,12.9779 15,12.50823 15,12 L 15,4 C 15,3.46921 14.6545,3 13.991421,3 Z"
     style="color:#000000;opacity:1;fill:#dc322f;fill-opacity:1"
     sodipodi:nodetypes="ccccsssc" />
  <path
     style="color:#000000;fill:#ffffff;fill-opacity:1"
     d="M 7.003144,5 8.00262,5 C 8.013015,4.99988 8.023409,4.99954 8.033904,5 8.2887204,5.0112 8.5435068,5.12858 8.7210437,5.3125 L 10.001572,6.59375 11.313385,5.3125 C 11.578865,5.082 11.759821,5.007 12.000524,5 L 13,5 13,6 c 0,0.28647 -0.03428,0.55065 -0.249869,0.75 l -1.280578,1.28125 1.249345,1.25 C 12.906989,9.46942 12.99999,9.7347 13,10 l 0,1 -0.999476,0 c -0.265161,-10e-6 -0.530312,-0.0931 -0.718373,-0.28125 L 10.001572,9.4375 8.7209933,10.71875 C 8.5329319,10.90694 8.267771,11 8.00262,11 l -0.999476,0 0,-1 c 0,-0.26529 0.093051,-0.53058 0.2811026,-0.71875 L 8.5648252,8.03125 7.2842466,6.75 C 7.073617,6.55537 6.9812454,6.28075 7.003144,6 l 0,-1 z"
     id="path4169"
     inkscape:connector-curvature="0" />
  <path
     inkscape:connector-curvature="0"
     id="path6"
     d="M 7.003144,5 8.00262,5 C 8.013015,4.99988 8.023409,4.99954 8.033904,5 8.2887204,5.0112 8.5435068,5.12858 8.7210437,5.3125 L 10.001572,6.59375 11.313385,5.3125 C 11.578865,5.082 11.759821,5.007 12.000524,5 L 13,5 13,6 c 0,0.28647 -0.03428,0.55065 -0.249869,0.75 l -1.280578,1.28125 1.249345,1.25 C 12.906989,9.46942 12.99999,9.7347 13,10 l 0,1 -0.999476,0 c -0.265161,-10e-6 -0.530312,-0.0931 -0.718373,-0.28125 L 10.001572,9.4375 8.7209933,10.71875 C 8.5329319,10.90694 8.267771,11 8.00262,11 l -0.999476,0 0,-1 c 0,-0.26529 0.093051,-0.53058 0.2811026,-0.71875 L 8.5648252,8.03125 7.2842466,6.75 C 7.073617,6.55537 6.9812454,6.28075 7.003144,6 l 0,-1 z"
     style="color:#000000;fill:#dc322f;fill-opacity:0.10196078" />
</svg>

<svg xmlns="http://www.w3.org/2000/svg" viewBox="0 0 16 16">
 <path d="m 6 3 -5 5 5 5 8.04 0 c 0.53 -0.022 0.964 -0.492 0.964 -1 l 0 -8 c 0 -0.531 -0.345 -1 -1.01 -1" style="fill:#dc322f;opacity:1;fill-opacity:1;color:#000"/>
 <path d="m 7 5 0.999 0 c 0.01 0 0.021 0 0.031 0 0.255 0.011 0.51 0.129 0.687 0.313 l 1.281 1.281 1.312 -1.281 c 0.265 -0.231 0.446 -0.306 0.687 -0.313 l 0.999 0 0 1 c 0 0.286 -0.034 0.551 -0.25 0.75 l -1.281 1.281 1.249 1.25 c 0.188 0.188 0.281 0.453 0.281 0.719 l 0 1 -0.999 0 c -0.265 0 -0.53 -0.093 -0.718 -0.281 l -1.281 -1.281 -1.281 1.281 c -0.188 0.188 -0.453 0.281 -0.718 0.281 l -0.999 0 0 -1 c 0 -0.265 0.093 -0.531 0.281 -0.719 l 1.281 -1.25 -1.281 -1.281 c -0.211 -0.195 -0.303 -0.469 -0.281 -0.75 l 0 -1 z" style="fill:#fff;fill-opacity:1;color:#000"/>
 <path d="m 7 5 0.999 0 c 0.01 0 0.021 0 0.031 0 0.255 0.011 0.51 0.129 0.687 0.313 l 1.281 1.281 1.312 -1.281 c 0.265 -0.231 0.446 -0.306 0.687 -0.313 l 0.999 0 0 1 c 0 0.286 -0.034 0.551 -0.25 0.75 l -1.281 1.281 1.249 1.25 c 0.188 0.188 0.281 0.453 0.281 0.719 l 0 1 -0.999 0 c -0.265 0 -0.53 -0.093 -0.718 -0.281 l -1.281 -1.281 -1.281 1.281 c -0.188 0.188 -0.453 0.281 -0.718 0.281 l -0.999 0 0 -1 c 0 -0.265 0.093 -0.531 0.281 -0.719 l 1.281 -1.25 -1.281 -1.281 c -0.211 -0.195 -0.303 -0.469 -0.281 -0.75 l 0 -1 z" style="fill:#dc322f;fill-opacity:0.102;color:#000"/>
</svg>
